X: 7
T: The Reel With The Birl
R: reel
M: 4/4
L: 1/8
K: Edor
~E2BE dEBE|~E2BE AGFD|~E2BE dEBd|efdB AFDF|
~E2BE dEBE|~E2BE AGFA|GBEF GABd |eddB A3d||
BABd e3g|fddc d2ef|g2gf gfeg|fa~a2 afde|
fb~b2 faaf|gefd edBA|GBEF GABd|eddB AGFD||


Tune 189	Setting 12840

